X:1
T:The Bloodwashed Pilgrim
T:Anonymous, 19th Century
T:The Bloodwashed Pilgrim
T:Public Domain
C:Anonymous, 19th Century
Z:Public Domain
%%score ( 1 2 ) ( 3 4 )
L:1/8
M:2/4
K:F
V:1 treble 
V:2 treble 
V:3 bass 
V:4 bass 
V:1
 x4 || A/G/ | [CF]>[CF] [CF][CF] | [CF] [CF]2 [CF] | [EG]>[EG] [EG][EG] | [FA]3 [EG] | %6
 [FA][Fc] [Fc]>[Fd] | [Fc] [FA]2 F | [EG]>[CF] [CF][DF] | [CF]3 || [EG] | [FA][Fc] [Fc]>[Fd] | %12
 [Fc] [FA]2 F | [EG]>[CF] [CF][DF] | [CF]3 || A/G/ | [CF]3 [CF] | [CF]>[CF] FA | [EG]3 [EG] | %19
 Ac [Fc]2 | [Fc]3 [Fd] | [Fc]>[FA] [FA]2 | GF AG | F6 |] %24
V:2
 x4 || F | x4 | x4 | x4 | x4 | x4 | x4 | x4 | x3 || x | x4 | x4 | x4 | x3 || F | x4 | x2 C2 | x4 | %19
 F2 x2 | x4 | x4 | C2 E2 | F6 |] %24
V:3
 x4 || C/B,/ | [F,A,]>[F,A,] [F,A,][F,A,] | [F,A,] [F,A,]2 [F,A,] | [C,C]>[C,C] [C,C][C,C] | %5
 [F,C]3 [C,C] | [F,C][F,A,] [F,A,]>[F,B,] | [F,A,] [F,C]2 [F,A,] | [C,B,]>[F,A,] [F,A,][F,B,] | %9
 [F,A,]3 || [C,C] | [F,C][F,A,] [F,A,]>[F,B,] | [F,A,] [F,C]2 [F,A,] | [C,B,]>[F,A,] [F,A,][F,B,] | %14
 [F,A,]3 || C/B,/ | [F,A,]3 [F,A,] | [F,A,]>[F,A,] A,C | [C,C]3 [C,C] | CA, [F,A,]2 | %20
 [F,A,]3 [F,B,] | [F,A,]>[F,C] [F,C]2 | B,A, CB, | [F,A,]6 |] %24
V:4
 x4 || F, | x4 | x4 | x4 | x4 | x4 | x4 | x4 | x3 || x | x4 | x4 | x4 | x3 || F, | x4 | x2 F,2 | %18
 x4 | F,2 x2 | x4 | x4 | C,2 C,2 | x6 |] %24

